img/idioma-icone.svg

<svg width="24" height="24" viewBox="0 0 24 24" fill="none" xmlns="http://www.w3.org/2000/svg">
<mask id="mask0_14_141" style="mask-type:alpha" maskUnits="userSpaceOnUse" x="0" y="0" width="24" height="24">
<rect width="24" height="24" fill="#D9D9D9"/>
</mask>
<g mask="url(#mask0_14_141)">
<path d="M11.8371 23L16.7783 9.8H19.0588L24 23H21.7195L20.5792 19.645H15.3122L14.1176 23H11.8371ZM15.9638 17.72H19.8733L17.9728 12.275H17.8643L15.9638 17.72ZM3.25792 19.7L1.73756 18.16L7.22172 12.605C6.53394 11.835 5.93231 11.0375 5.41683 10.2125C4.90063 9.3875 4.45249 8.51667 4.0724 7.6H6.35294C6.67873 8.26 7.02733 8.85583 7.39873 9.3875C7.76941 9.91917 8.21719 10.4783 8.74208 11.065C9.53846 10.185 10.1991 9.28227 10.724 8.3568C11.2489 7.4306 11.6923 6.445 12.0543 5.4H0V3.2H7.60181V1H9.77376V3.2H17.3756V5.4H14.2262C13.8462 6.70167 13.3303 7.96667 12.6787 9.195C12.0271 10.4233 11.2217 11.5783 10.2624 12.66L12.8688 15.355L12.0543 17.61L8.68778 14.2L3.25792 19.7Z" fill="url(#paint0_linear_14_141)"/>
</g>
<defs>
<linearGradient id="paint0_linear_14_141" x1="12" y1="1" x2="12" y2="23" gradientUnits="userSpaceOnUse">
<stop stop-color="#D2D904"/>
<stop offset="1" stop-color="#848900"/>
</linearGradient>
</defs>
</svg>

<svg xmlns="http://www.w3.org/2000/svg" width="24" height="24" fill="none"><mask id="a" width="24" height="24" x="0" y="0" maskUnits="userSpaceOnUse" style="mask-type:alpha"><path fill="#D9D9D9" d="M0 0h24v24H0z"/></mask><g mask="url(#a)"><path fill="url(#b)" d="m11.837 23 4.941-13.2h2.28L24 23h-2.28l-1.14-3.355h-5.268L14.118 23h-2.28Zm4.127-5.28h3.91l-1.901-5.445h-.109l-1.9 5.445ZM3.258 19.7l-1.52-1.54 5.484-5.555a17.57 17.57 0 0 1-1.805-2.393A17.687 17.687 0 0 1 4.072 7.6h2.28c.327.66.675 1.256 1.047 1.787.37.532.818 1.091 1.343 1.678a15.3 15.3 0 0 0 1.982-2.708c.525-.926.968-1.912 1.33-2.957H0V3.2h7.602V1h2.172v2.2h7.602v2.2h-3.15a20.106 20.106 0 0 1-1.547 3.795 17.751 17.751 0 0 1-2.417 3.465l2.607 2.695-.815 2.255-3.366-3.41-5.43 5.5Z"/></g><defs><linearGradient id="b" x1="12" x2="12" y1="1" y2="23" gradientUnits="userSpaceOnUse"><stop stop-color="#D2D904"/><stop offset="1" stop-color="#848900"/></linearGradient></defs></svg>
